flaticon/emoticons/crying-2.svg

<svg xmlns="http://www.w3.org/2000/svg" width="32" height="32" viewBox="0 0 24 24">
    <path d="M17.160156 11.980469C17.167969 12.429688 17.542969 12.792969 17.992188 12.785156 18.445312 12.777344 18.804688 12.402344 18.800781 11.953125 18.792969 11.503906 17.953125 10.328125 17.953125 10.328125 17.945312 10.320312 17.152344 11.527344 17.160156 11.980469zM6.390625 12.140625C6.386719 12.132812 5.59375 13.339844 5.601562 13.792969 5.605469 14.242188 5.980469 14.605469 6.433594 14.597656 6.882812 14.589844 7.246094 14.214844 7.238281 13.765625 7.230469 13.316406 6.390625 12.140625 6.390625 12.140625zM6.390625 12.140625"/>
    <path d="M 23.917969 10.625 C 23.757812 9.949219 23.371094 9.363281 22.886719 9.066406 C 22.5625 8.867188 22.214844 8.800781 21.882812 8.882812 C 21.808594 8.898438 21.734375 8.925781 21.664062 8.960938 C 20.730469 6.6875 19.273438 5.214844 17.773438 4.265625 L 18.316406 3.179688 C 18.417969 2.980469 18.335938 2.742188 18.140625 2.640625 C 17.941406 2.542969 17.699219 2.625 17.601562 2.820312 L 17.082031 3.863281 C 16.832031 3.730469 16.589844 3.613281 16.347656 3.503906 L 16.738281 2.324219 C 16.808594 2.117188 16.695312 1.890625 16.488281 1.820312 C 16.277344 1.75 16.050781 1.863281 15.980469 2.074219 L 15.601562 3.210938 C 15.324219 3.109375 15.054688 3.027344 14.796875 2.953125 L 15.140625 1.925781 C 15.210938 1.714844 15.097656 1.488281 14.886719 1.417969 C 14.675781 1.347656 14.449219 1.460938 14.382812 1.671875 L 14.019531 2.761719 C 13.511719 2.65625 13.078125 2.597656 12.757812 2.566406 L 12.757812 1.800781 C 12.757812 1.578125 12.582031 1.398438 12.359375 1.398438 C 12.136719 1.398438 11.960938 1.578125 11.960938 1.800781 L 11.960938 2.539062 C 11.75 2.550781 11.382812 2.582031 10.90625 2.65625 L 10.753906 1.734375 C 10.71875 1.515625 10.511719 1.367188 10.292969 1.40625 C 10.074219 1.441406 9.929688 1.648438 9.964844 1.867188 L 10.121094 2.804688 C 9.691406 2.902344 9.21875 3.035156 8.71875 3.210938 L 8.339844 2.074219 C 8.269531 1.863281 8.042969 1.75 7.832031 1.820312 C 7.625 1.890625 7.511719 2.117188 7.578125 2.328125 L 7.972656 3.507812 C 7.628906 3.660156 7.277344 3.835938 6.925781 4.035156 L 6.316406 2.820312 C 6.21875 2.625 5.976562 2.542969 5.78125 2.640625 C 5.582031 2.742188 5.503906 2.980469 5.601562 3.179688 L 6.242188 4.460938 C 5.890625 4.703125 5.542969 4.976562 5.203125 5.28125 L 4.242188 4.316406 C 4.085938 4.160156 3.832031 4.160156 3.675781 4.316406 C 3.519531 4.472656 3.519531 4.726562 3.675781 4.882812 L 4.632812 5.839844 C 3.402344 7.144531 2.375 8.972656 1.902344 11.523438 C 1.894531 11.554688 1.890625 11.589844 1.886719 11.625 C 1.785156 11.59375 1.679688 11.578125 1.574219 11.578125 C 0.691406 11.574219 0 12.527344 0 13.746094 C 0 14.960938 0.691406 15.914062 1.574219 15.914062 C 1.738281 15.914062 1.894531 15.875 2.046875 15.808594 C 2.328125 16.875 2.792969 17.878906 3.429688 18.757812 C 4.707031 20.519531 7.21875 22.601562 11.9375 22.601562 C 12.011719 22.601562 12.082031 22.601562 12.15625 22.597656 C 12.230469 22.601562 12.304688 22.601562 12.375 22.601562 C 17.09375 22.601562 19.605469 20.519531 20.882812 18.757812 C 22.035156 17.171875 22.621094 15.179688 22.574219 13.128906 C 22.589844 13.128906 22.601562 13.132812 22.617188 13.132812 C 22.707031 13.132812 22.796875 13.125 22.886719 13.101562 C 23.742188 12.898438 24.199219 11.808594 23.917969 10.625 Z M 1.871094 14.996094 C 1.789062 15.0625 1.6875 15.113281 1.574219 15.113281 C 1.207031 15.113281 0.800781 14.550781 0.800781 13.746094 C 0.800781 12.9375 1.207031 12.375 1.574219 12.375 C 1.640625 12.375 1.710938 12.394531 1.777344 12.429688 C 1.757812 12.644531 1.746094 12.855469 1.738281 13.070312 C 1.738281 13.082031 1.738281 13.097656 1.738281 13.109375 C 1.734375 13.289062 1.734375 13.464844 1.738281 13.640625 C 1.742188 13.695312 1.742188 13.75 1.746094 13.804688 C 1.753906 13.949219 1.761719 14.09375 1.777344 14.234375 C 1.78125 14.292969 1.785156 14.347656 1.789062 14.40625 C 1.808594 14.578125 1.832031 14.753906 1.859375 14.925781 C 1.863281 14.949219 1.867188 14.972656 1.871094 14.996094 Z M 20.234375 18.289062 C 18.507812 20.667969 15.796875 21.851562 12.160156 21.800781 L 12.152344 21.800781 C 8.519531 21.855469 5.804688 20.667969 4.078125 18.289062 C 3.253906 17.152344 2.746094 15.785156 2.585938 14.34375 C 2.582031 14.3125 2.582031 14.28125 2.578125 14.25 C 2.558594 14.019531 2.542969 13.789062 2.539062 13.558594 C 2.535156 13.460938 2.539062 13.359375 2.539062 13.257812 C 2.542969 13.09375 2.546875 12.933594 2.558594 12.769531 C 2.566406 12.652344 2.574219 12.535156 2.585938 12.414062 C 2.613281 12.167969 2.640625 11.917969 2.6875 11.667969 C 3.125 9.296875 4.0625 7.601562 5.179688 6.386719 L 5.675781 6.882812 C 5.753906 6.960938 5.855469 7 5.957031 7 C 6.0625 7 6.164062 6.960938 6.242188 6.882812 C 6.398438 6.726562 6.398438 6.472656 6.242188 6.316406 L 5.75 5.824219 C 6.023438 5.578125 6.304688 5.355469 6.589844 5.152344 L 6.800781 5.578125 C 6.871094 5.71875 7.011719 5.800781 7.160156 5.800781 C 7.21875 5.800781 7.28125 5.785156 7.335938 5.757812 C 7.535156 5.660156 7.613281 5.417969 7.515625 5.222656 L 7.265625 4.71875 C 7.582031 4.535156 7.902344 4.371094 8.214844 4.230469 L 8.378906 4.726562 C 8.433594 4.894531 8.589844 5 8.757812 5 C 8.800781 5 8.84375 4.992188 8.882812 4.980469 C 9.09375 4.910156 9.207031 4.683594 9.136719 4.472656 L 8.957031 3.933594 C 9.417969 3.773438 9.851562 3.652344 10.246094 3.566406 L 10.363281 4.265625 C 10.394531 4.460938 10.566406 4.601562 10.757812 4.601562 C 10.777344 4.601562 10.800781 4.597656 10.824219 4.59375 C 11.042969 4.558594 11.1875 4.351562 11.152344 4.132812 L 11.035156 3.421875 C 11.445312 3.363281 11.765625 3.34375 11.960938 3.335938 L 11.960938 4.199219 C 11.960938 4.421875 12.136719 4.601562 12.359375 4.601562 C 12.582031 4.601562 12.757812 4.421875 12.757812 4.199219 L 12.757812 3.363281 C 13.027344 3.386719 13.371094 3.429688 13.769531 3.507812 L 13.578125 4.074219 C 13.507812 4.28125 13.621094 4.507812 13.832031 4.578125 C 13.875 4.59375 13.917969 4.601562 13.957031 4.601562 C 14.125 4.601562 14.28125 4.492188 14.339844 4.328125 L 14.550781 3.6875 C 14.808594 3.753906 15.078125 3.839844 15.359375 3.9375 L 15.179688 4.472656 C 15.109375 4.683594 15.222656 4.910156 15.433594 4.980469 C 15.472656 4.992188 15.515625 5 15.558594 5 C 15.726562 5 15.882812 4.894531 15.9375 4.726562 L 16.101562 4.234375 C 16.3125 4.328125 16.523438 4.433594 16.738281 4.546875 L 16.402344 5.222656 C 16.300781 5.417969 16.382812 5.660156 16.578125 5.757812 C 16.636719 5.785156 16.699219 5.800781 16.757812 5.800781 C 16.90625 5.800781 17.046875 5.71875 17.117188 5.578125 L 17.429688 4.953125 C 18.835938 5.871094 20.199219 7.296875 21.039062 9.539062 L 21.035156 9.542969 L 21.109375 9.746094 C 21.214844 10.039062 21.304688 10.332031 21.382812 10.628906 C 21.394531 10.664062 21.40625 10.703125 21.414062 10.742188 C 21.496094 11.042969 21.566406 11.351562 21.625 11.667969 C 21.671875 11.933594 21.707031 12.203125 21.734375 12.46875 C 21.738281 12.515625 21.742188 12.558594 21.746094 12.605469 C 21.917969 14.671875 21.386719 16.703125 20.234375 18.289062 Z M 22.699219 12.324219 C 22.644531 12.335938 22.585938 12.335938 22.523438 12.324219 C 22.523438 12.308594 22.519531 12.292969 22.519531 12.277344 C 22.492188 12.027344 22.457031 11.773438 22.410156 11.523438 C 22.355469 11.214844 22.285156 10.917969 22.214844 10.632812 C 22.207031 10.597656 22.195312 10.5625 22.1875 10.527344 C 22.113281 10.253906 22.035156 9.992188 21.953125 9.738281 C 21.949219 9.730469 21.949219 9.722656 21.945312 9.714844 C 21.984375 9.6875 22.027344 9.667969 22.070312 9.660156 C 22.222656 9.625 22.371094 9.6875 22.46875 9.746094 C 22.769531 9.933594 23.027344 10.339844 23.140625 10.8125 C 23.324219 11.597656 23.054688 12.238281 22.699219 12.324219 Z M 22.699219 12.324219"/>
    <path d="M15.289062 17.039062C13.46875 16.761719 11 17.964844 9.675781 19.769531 9.546875 19.945312 9.585938 20.195312 9.761719 20.328125 9.832031 20.378906 9.917969 20.40625 10 20.40625 10.121094 20.40625 10.242188 20.347656 10.320312 20.242188 11.464844 18.683594 13.640625 17.601562 15.167969 17.828125 15.8125 17.925781 16.234375 18.242188 16.421875 18.777344 16.496094 18.984375 16.722656 19.09375 16.929688 19.023438 17.140625 18.949219 17.25 18.722656 17.175781 18.511719 16.894531 17.699219 16.222656 17.175781 15.289062 17.039062zM10.984375 14.992188C11.519531 15.671875 12.269531 16.070312 13 16.070312 13.089844 16.070312 13.179688 16.0625 13.265625 16.050781 14.007812 15.949219 14.605469 15.441406 14.945312 14.621094 15.324219 13.710938 15.277344 12.679688 14.816406 11.796875 14.398438 10.996094 13.6875 10.417969 12.917969 10.246094 12.414062 10.136719 11.90625 10.214844 11.453125 10.480469 11.265625 10.589844 11.199219 10.835938 11.3125 11.027344 11.421875 11.21875 11.667969 11.28125 11.855469 11.171875 12.136719 11.007812 12.4375 10.960938 12.746094 11.027344 13.289062 11.148438 13.796875 11.574219 14.105469 12.167969 14.457031 12.839844 14.492188 13.625 14.207031 14.316406 13.976562 14.871094 13.613281 15.195312 13.15625 15.257812 12.628906 15.328125 12.039062 15.039062 11.609375 14.488281 11.597656 14.472656 11.585938 14.453125 11.570312 14.433594 11.445312 14.261719 11.214844 14.238281 11.035156 14.359375 10.855469 14.480469 10.820312 14.738281 10.933594 14.921875 10.949219 14.945312 10.964844 14.96875 10.984375 14.992188zM9.398438 9.3125C9.199219 9.214844 8.960938 9.296875 8.863281 9.492188 8.621094 9.972656 8.210938 10.328125 7.707031 10.496094 7.199219 10.664062 6.65625 10.625 6.179688 10.386719 5.980469 10.289062 5.742188 10.367188 5.640625 10.566406 5.542969 10.765625 5.621094 11.003906 5.820312 11.101562 6.214844 11.300781 6.640625 11.398438 7.070312 11.398438 7.367188 11.398438 7.667969 11.351562 7.957031 11.253906 8.667969 11.019531 9.242188 10.519531 9.578125 9.851562 9.675781 9.652344 9.597656 9.414062 9.398438 9.3125zM16.949219 9.527344C17.371094 9.527344 17.796875 9.429688 18.199219 9.230469 18.394531 9.132812 18.476562 8.890625 18.375 8.695312 18.277344 8.496094 18.039062 8.417969 17.839844 8.515625 16.855469 9.007812 15.648438 8.605469 15.15625 7.621094 15.058594 7.421875 14.820312 7.34375 14.621094 7.441406 14.421875 7.539062 14.34375 7.78125 14.441406 7.980469 14.933594 8.957031 15.921875 9.527344 16.949219 9.527344zM16.949219 9.527344"/>
</svg>

<svg xmlns="http://www.w3.org/2000/svg" width="32" height="32" viewBox="0 0 24 24">
    <path d="M17.16 11.98c.008.45.383.813.832.805a.825.825 0 0 0 .809-.832c-.008-.45-.848-1.625-.848-1.625-.008-.008-.8 1.2-.793 1.652zm0 0M6.39 12.14c-.003-.007-.796 1.2-.788 1.653.003.45.378.812.832.805a.822.822 0 0 0 .804-.832c-.008-.45-.847-1.625-.847-1.625zm0 0"/>
    <path d="M23.918 10.625c-.16-.676-.547-1.262-1.031-1.559-.325-.199-.672-.265-1.004-.183a.916.916 0 0 0-.219.078c-.934-2.274-2.39-3.746-3.89-4.695l.542-1.086a.401.401 0 0 0-.175-.54.405.405 0 0 0-.54.18l-.519 1.043c-.25-.133-.492-.25-.734-.36l.39-1.179a.4.4 0 1 0-.758-.25l-.378 1.137a11.849 11.849 0 0 0-.805-.258l.344-1.027a.4.4 0 0 0-.254-.508.395.395 0 0 0-.504.254l-.363 1.09a12.012 12.012 0 0 0-1.262-.196v-.765a.398.398 0 1 0-.797 0v.738c-.211.012-.578.043-1.055.117l-.152-.922a.396.396 0 0 0-.461-.328.4.4 0 0 0-.328.461l.156.938c-.43.097-.902.23-1.402.406l-.38-1.137a.4.4 0 1 0-.76.254l.394 1.18c-.344.152-.696.328-1.047.527l-.61-1.215a.402.402 0 0 0-.535-.18.403.403 0 0 0-.18.54l.641 1.28c-.351.243-.699.517-1.039.821l-.96-.965a.4.4 0 0 0-.567.567l.957.957c-1.23 1.305-2.258 3.133-2.73 5.683a.79.79 0 0 0-.016.102 1.063 1.063 0 0 0-.313-.047C.691 11.574 0 12.528 0 13.746c0 1.215.691 2.168 1.574 2.168.164 0 .32-.039.473-.105a8.885 8.885 0 0 0 1.383 2.949c1.277 1.762 3.789 3.844 8.508 3.844.074 0 .144 0 .218-.004.074.004.149.004.219.004 4.719 0 7.23-2.082 8.508-3.844 1.152-1.586 1.738-3.578 1.691-5.63.016 0 .028.005.043.005.09 0 .18-.008.27-.031.855-.204 1.312-1.293 1.031-2.477zM1.871 14.996a.477.477 0 0 1-.297.117c-.367 0-.773-.562-.773-1.367 0-.809.406-1.371.773-1.371a.44.44 0 0 1 .203.055c-.02.215-.03.425-.039.64v.04c-.004.18-.004.355 0 .53.004.055.004.11.008.165.008.144.016.289.031.43l.012.171c.02.172.043.348.07.52l.012.07zm18.363 3.293c-1.726 2.379-4.437 3.563-8.074 3.512h-.008c-3.632.054-6.347-1.133-8.074-3.512-.824-1.137-1.332-2.504-1.492-3.945-.004-.031-.004-.063-.008-.094-.02-.23-.035-.46-.039-.691-.004-.098 0-.2 0-.301a10.2 10.2 0 0 1 .047-.844c.027-.246.055-.496.102-.746.437-2.371 1.374-4.066 2.492-5.281l.496.496a.399.399 0 0 0 .566 0 .4.4 0 0 0 0-.567l-.492-.492a9.44 9.44 0 0 1 .84-.672l.21.426a.4.4 0 0 0 .536.18c.2-.098.277-.34.18-.535l-.25-.504c.316-.184.636-.348.949-.489l.164.497a.397.397 0 0 0 .504.253.4.4 0 0 0 .254-.507l-.18-.54c.461-.16.895-.28 1.29-.367l.116.7a.402.402 0 0 0 .395.336c.02 0 .043-.004.066-.008a.4.4 0 0 0 .328-.461l-.117-.711c.41-.059.73-.078.926-.086v.863a.398.398 0 1 0 .797 0v-.836c.27.024.613.067 1.012.145l-.192.566a.398.398 0 0 0 .254.504.37.37 0 0 0 .125.024c.168 0 .324-.11.383-.274l.21-.64c.259.066.528.152.81.25l-.18.535a.4.4 0 0 0 .379.527.397.397 0 0 0 .379-.273l.164-.493c.21.094.421.2.636.313l-.336.676a.397.397 0 0 0 .356.578.4.4 0 0 0 .36-.223l.312-.625c1.406.918 2.77 2.344 3.61 4.586l-.005.004.074.203c.106.293.196.586.274.883a11.42 11.42 0 0 1 .242 1.04c.047.265.082.534.11.8l.011.136c.172 2.067-.36 4.098-1.512 5.684zm2.465-5.965a.443.443 0 0 1-.176 0c0-.015-.003-.031-.003-.047-.028-.25-.063-.504-.11-.754a13.663 13.663 0 0 0-.195-.89c-.008-.035-.02-.07-.027-.106a17.305 17.305 0 0 0-.235-.789c-.004-.008-.004-.015-.008-.023a.322.322 0 0 1 .125-.055c.153-.035.301.027.399.086.3.188.558.594.672 1.066.183.786-.086 1.426-.442 1.512zm0 0"/>
    <path d="M15.29 17.04c-1.821-.278-4.29.925-5.614 2.73a.404.404 0 0 0 .086.558c.07.05.156.078.238.078a.402.402 0 0 0 .32-.164c1.145-1.558 3.32-2.64 4.848-2.414.645.098 1.066.414 1.254.95a.4.4 0 1 0 .754-.266c-.281-.813-.953-1.336-1.887-1.473zm0 0M10.984 14.992c.536.68 1.286 1.078 2.016 1.078.09 0 .18-.008.266-.02.742-.1 1.34-.609 1.68-1.429a3.328 3.328 0 0 0-.13-2.824c-.418-.8-1.129-1.379-1.898-1.55a2.01 2.01 0 0 0-1.465.233.4.4 0 0 0 .402.692c.282-.164.582-.211.891-.145.543.121 1.05.547 1.36 1.141a2.54 2.54 0 0 1 .101 2.148c-.23.555-.594.88-1.05.942-.528.07-1.118-.219-1.548-.77-.011-.015-.023-.035-.039-.054-.125-.172-.355-.196-.535-.075-.18.121-.215.38-.101.563.015.023.03.047.05.07zm0 0M9.398 9.313a.4.4 0 0 0-.535.18 1.994 1.994 0 0 1-2.683.894.403.403 0 0 0-.54.18c-.097.199-.019.437.18.535.395.199.82.296 1.25.296.297 0 .598-.046.887-.144a2.779 2.779 0 0 0 1.621-1.402.403.403 0 0 0-.18-.54zm0 0M16.95 9.527a2.81 2.81 0 0 0 1.25-.297.397.397 0 0 0 .175-.535.397.397 0 0 0-.535-.18 2.006 2.006 0 0 1-2.684-.894.397.397 0 0 0-.535-.18.402.402 0 0 0-.18.54 2.81 2.81 0 0 0 2.508 1.546zm0 0"/>
</svg>
